X:48
T:[untitled]
T:ordinary
Z:Jack Campin - http://www.campin.me.uk
S:Blaikie MS (NLS MS.1578) p16, Blaikie #47
N:bar 3 has a note written in fainter ink or pencil making it |{e}d2B>A G2AA|
M:C
L:1/8
V:1 midi program 1 74
V:2 midi program 1 46 bass middle = d transpose -24
Q:1/4=96
K:G
[V:1] G2 G>A B2Bd|e2d>B d3 e|{e}d2B>A G2GA|B<dB>A G4|]
[V:2] G2 g2  G2g2|G2g2  G2g2|   G2g2  b3 a|g2 d2  G4|]
W:Transcription (c) Jack Campin 2009, no mirroring or republication without permission

